lib/healthicons/icons/outline/devices/stethoscope.svg

<svg fill="none" height="48" viewBox="0 0 48 48" width="48" xmlns="http://www.w3.org/2000/svg"><g fill="#333"><path d="m12 10c1.1046 0 2-.89543 2-2s-.8954-2-2-2c-.7403 0-1.3866.4022-1.7324 1h-.2676c-1.65685 0-3 1.34315-3 3v9h2v-9c0-.55228.44772-1 1-1h.2676c.3458.5978.9921 1 1.7324 1z"/><path clip-rule="evenodd" d="m10.1602 19h-1.1602-2c-.55228 0-1.00469.4487-.95457.9987.23249 2.5512 1.35025 4.9533 3.17643 6.7795 1.33914 1.3391 2.98794 2.2973 4.77814 2.8048v2.417c0 1.3064.835 2.4177 2.0004 2.8294.0426 3.9675 3.2721 7.1706 7.2496 7.1706 4.0041 0 7.25-3.2459 7.25-7.25v-4c0-2.0711 1.6789-3.75 3.75-3.75s3.75 1.6789 3.75 3.75v2.4207c-1.1652.4118-2 1.5231-2 2.8293 0 1.6569 1.3431 3 3 3s3-1.3431 3-3c0-1.3062-.8348-2.4175-2-2.8293v-2.4207c0-3.1756-2.5744-5.75-5.75-5.75s-5.75 2.5744-5.75 5.75v4c0 2.8995-2.3505 5.25-5.25 5.25-2.8731 0-5.2071-2.3079-5.2494-5.1709 1.1649-.412 1.9994-1.5231 1.9994-2.8291v-2.417c1.7902-.5075 3.4391-1.4657 4.7782-2.8048 1.8262-1.8262 2.9439-4.2283 3.1764-6.7795.0502-.55-.4023-.9987-.9546-.9987v-9c0-1.65685-1.3431-3-3-3h-.2676c-.3458-.5978-.9921-1-1.7324-1-1.1046 0-2 .89543-2 2s.8954 2 2 2c.7403 0 1.3866-.4022 1.7324-1h.2676c.5523 0 1 .44772 1 1v9h-1.1601c-.5523 0-.9913.4509-1.0854.9952-.204 1.1794-.7673 2.2765-1.6251 3.1342-1.0951 1.0952-2.5805 1.7105-4.1294 1.7105-1.5488 0-3.0342-.6153-4.1294-1.7105-.8577-.8577-1.4211-1.9548-1.6251-3.1342-.0941-.5443-.5331-.9952-1.0853-.9952zm14.4203 2h1.1945c-.3737 1.6396-1.2029 3.1559-2.411 4.364-1.6878 1.6878-3.977 2.636-6.364 2.636-2.3869 0-4.6761-.9482-6.3639-2.636-1.20813-1.2081-2.03733-2.7244-2.41108-4.364h1.19451c.35071 1.3291 1.04807 2.5548 2.03687 3.5436 1.4703 1.4703 3.4644 2.2963 5.5436 2.2963 2.0793 0 4.0734-.826 5.5437-2.2963.9888-.9888 1.6861-2.2145 2.0368-3.5436zm14.4195 14c.5523 0 1 .4477 1 1s-.4477 1-1 1-1-.4477-1-1 .4477-1 1-1zm-21-5v2c0 .5523-.4477 1-1 1s-1-.4477-1-1v-2z" fill-rule="evenodd"/></g></svg>

<svg width="48" height="48" viewBox="0 0 48 48" fill="none" xmlns="http://www.w3.org/2000/svg">
<path d="M12 10C13.1046 10 14 9.10457 14 8C14 6.89543 13.1046 6 12 6C11.2597 6 10.6134 6.4022 10.2676 7H10C8.34315 7 7 8.34315 7 10V19H9V10C9 9.44772 9.44772 9 10 9H10.2676C10.6134 9.5978 11.2597 10 12 10Z" fill="#333333"/>
<path fill-rule="evenodd" clip-rule="evenodd" d="M10.1602 19L9 19H7C6.44772 19 5.99531 19.4487 6.04543 19.9987C6.27792 22.5499 7.39568 24.952 9.22186 26.7782C10.561 28.1173 12.2098 29.0755 14 29.583V32C14 33.3064 14.835 34.4177 16.0004 34.8294C16.043 38.7969 19.2725 42 23.25 42C27.2541 42 30.5 38.7541 30.5 34.75V30.75C30.5 28.6789 32.1789 27 34.25 27C36.3211 27 38 28.6789 38 30.75V33.1707C36.8348 33.5825 36 34.6938 36 36C36 37.6569 37.3431 39 39 39C40.6569 39 42 37.6569 42 36C42 34.6938 41.1652 33.5825 40 33.1707V30.75C40 27.5744 37.4256 25 34.25 25C31.0744 25 28.5 27.5744 28.5 30.75V34.75C28.5 37.6495 26.1495 40 23.25 40C20.3769 40 18.0429 37.6921 18.0006 34.8291C19.1655 34.4171 20 33.306 20 32V29.583C21.7902 29.0755 23.4391 28.1173 24.7782 26.7782C26.6044 24.952 27.7221 22.5499 27.9546 19.9987C28.0048 19.4487 27.5523 19 27 19L27 10C27 8.34315 25.6569 7 24 7H23.7324C23.3866 6.4022 22.7403 6 22 6C20.8954 6 20 6.89543 20 8C20 9.10457 20.8954 10 22 10C22.7403 10 23.3866 9.5978 23.7324 9H24C24.5523 9 25 9.44772 25 10V19H23.8399C23.2876 19 22.8486 19.4509 22.7545 19.9952C22.5505 21.1746 21.9872 22.2717 21.1294 23.1294C20.0343 24.2246 18.5489 24.8399 17 24.8399C15.4512 24.8399 13.9658 24.2246 12.8706 23.1294C12.0129 22.2717 11.4495 21.1746 11.2455 19.9952C11.1514 19.4509 10.7124 19 10.1602 19ZM24.5805 21H25.775C25.4013 22.6396 24.5721 24.1559 23.364 25.364C21.6762 27.0518 19.387 28 17 28C14.6131 28 12.3239 27.0518 10.6361 25.364C9.42797 24.1559 8.59877 22.6396 8.22502 21L9.41953 21C9.77024 22.3291 10.4676 23.5548 11.4564 24.5436C12.9267 26.0139 14.9208 26.8399 17 26.8399C19.0793 26.8399 21.0734 26.0139 22.5437 24.5436C23.5325 23.5548 24.2298 22.3291 24.5805 21ZM39 35C39.5523 35 40 35.4477 40 36C40 36.5523 39.5523 37 39 37C38.4477 37 38 36.5523 38 36C38 35.4477 38.4477 35 39 35ZM18 30V32C18 32.5523 17.5523 33 17 33C16.4477 33 16 32.5523 16 32V30H18Z" fill="#333333"/>
</svg>
